!!!Genre:	Sher
!!!Mode:	Freygish
!!!Listening/dance:	dance
!!!:	*c:
!!!One_Mode:	no
**kern
*I"P1
*clefG2
*k[b-e-a-]
*G:frey
*M2/4
*>A
=1
8gL
8bnJ
(8.ddL
16ccJk)
=2
8cc
4bn
8f
=3
8a-L
8g
8f
8a-J
=4
8gL
8bnJ
16ddLL
16cc
16b
16a-JJ
=5
8gL
8bnJ
8.ddL
16ccJk
=6
8cc
4bn
8f
=7
8a-L
8g
8f
8a-J
=8
2g
*>bM
*c:
=9:|!
*>B
!LO:TX:a:i:t=C-minor
4cc
4ee-
=10
2gg
=11
8ffL
8ee-
8dd
8ee-J
=12
8ffL
8ee-J
16ggLL
16ff
16ee-
16ddJJ
=13
4cc
4ee-
=14
2gg
=15
8ffL
8ee-
8dd
8ccJ
=16
16ddLL
16ee-JJ
4.cc
*>eM
*G:frey
!LO:TX:a:i:t=G-freygish
=17!|:
*>C
16ffLL
16ee-
16dd
16ee-JJ
8.ffL
16ee-Jk
=18
16ddLL
16cc
16bn
16ccJJ
(8.ddL
16ccJk)
=19
16bnLL
16a-
16g
16a-JJ
16bLL
16cc
16b
16a-JJ
*>C1
=20
8gL
8bn
8dd
8ggJ
*>C2
=21:|!
8a-
4.g
=22||
*>D
4cc
8.bnL
16ddJk
=23
16ccLL
16bn
16a-
16gJJ
4f
=24
8a-L
8g
8f
8a-J
=25
8gL
8bnJ
16ddLL
16cc
16b
16a-JJ
=26
4cc
8.bnL
16ddJk
=27
16ccLL
16bn
16a-
16gJJ
4f
=28
16ffLL
16ee-
16dd
16ccJJ
8.bntL
16a-Jk
=29
8a-
4.g
==
*-
